src/topics/icons/eventsentry.svg

<svg height="256" preserveAspectRatio="xMidYMid" viewBox="0 0 256 256" width="256" xmlns="http://www.w3.org/2000/svg" xmlns:xlink="http://www.w3.org/1999/xlink"><defs><path id="a" d="m98.1465946 242.921514-84.7308108-84.732541c-16.70745948-16.707459-16.70745948-43.795027 0-60.5024865l84.7308108-84.7308108c16.7074594-16.70745948 43.7950274-16.70745948 60.5024864 0l84.730811 84.7308108c16.707459 16.7074595 16.707459 43.7950275 0 60.5024865l-84.730811 84.732541c-16.707459 16.707459-43.795027 16.707459-60.5024864 0"/><mask id="b" fill="#fff"><use fill="#fff" xlink:href="#a"/></mask></defs><use fill="#fff" xlink:href="#a"/><g fill="#f4922e"><path d="m247.195676 102.088649c-1.148541-1.504865-2.368-2.971676-3.744865-4.3485409l-29.875892-29.8758919c-59.577081 26.3991352-178.0514595 31.8668108-204.35027035 32.7489728.10205405-.121081-8.40475676 15.740541-8.32172973 15.456865 33.34745948 1.641514 196.13751308 8.138378 246.29275708-13.981405" mask="url(#b)"/><path d="m33.0810811 77.1891892c31.763027-.9703784 102.6940539-6.7078919 154.2399999-37.184l-28.922811-28.16c-16.897729-17.46162163-44.853621-16.33383785-61.7496214 1.1277838z" mask="url(#b)"/><path d="m96.6348108 243.027027c16.7074592 16.707459 44.1219462 19.027027 62.9327572.432432l29.860324-29.860324c-49.753946-29.168432-121.3630271-32.32173-153.9684325-31.761297z" mask="url(#b)"/><path d="m-1.58616216 136.252541 11.072 21.318918c33.25924326 1.09146 134.87048616 6.169946 205.65967616 28.978163l28.305297-28.305298c2.24-2.24 4.154811-4.677189 5.794594-7.238919-48.070919-23.458594-215.645405-16.340756-247.42399959-14.752864" mask="url(#b)"/></g></svg>

<?xml version="1.0" encoding="UTF-8" standalone="no"?>
<svg width="256px" height="256px" viewBox="0 0 256 256" version="1.1" xmlns="http://www.w3.org/2000/svg" xmlns:xlink="http://www.w3.org/1999/xlink" preserveAspectRatio="xMidYMid">
    <defs>
        <path id="path-1" d="M98.1465946,242.921514 L13.4157838,158.188973 C-3.29167568,141.481514 -3.29167568,114.393946 13.4157838,97.6864865 L98.1465946,12.9556757 C114.854054,-3.75178378 141.941622,-3.75178378 158.649081,12.9556757 L243.379892,97.6864865 C260.087351,114.393946 260.087351,141.481514 243.379892,158.188973 L158.649081,242.921514 C141.941622,259.628973 114.854054,259.628973 98.1465946,242.921514"></path>
    </defs>
	<g>
		<mask id="mask-2" fill="white">
			<use xlink:href="#path-1"></use>
		</mask>
		<use fill="#FFFFFF" xlink:href="#path-1"></use>
		<path d="M247.195676,102.088649 C246.047135,100.583784 244.827676,99.116973 243.450811,97.7401081 L213.574919,67.8642162 C153.997838,94.2633514 35.5234595,99.731027 9.22464865,100.613189 C9.3267027,100.492108 0.819891892,116.35373 0.902918919,116.070054 C34.2503784,117.711568 197.040432,124.208432 247.195676,102.088649" fill="#F4922E" mask="url(#mask-2)"></path>
		<path d="M33.0810811,77.1891892 C64.8441081,76.2188108 135.775135,70.4812973 187.321081,40.0051892 L158.39827,11.8451892 C141.500541,-5.61643243 113.544649,-4.48864865 96.6486486,12.972973 L33.0810811,77.1891892" fill="#F4922E" mask="url(#mask-2)"></path>
		<path d="M96.6348108,243.027027 C113.34227,259.734486 140.756757,262.054054 159.567568,243.459459 L189.427892,213.599135 C139.673946,184.430703 68.0648649,181.277405 35.4594595,181.837838 L96.6348108,243.027027" fill="#F4922E" mask="url(#mask-2)"></path>
		<path d="M-1.58616216,136.252541 L9.48583784,157.571459 C42.7450811,158.662919 144.356324,163.741405 215.145514,186.549622 L243.450811,158.244324 C245.690811,156.004324 247.605622,153.567135 249.245405,151.005405 C201.174486,127.546811 33.6,134.664649 1.82140541,136.252541" fill="#F4922E" mask="url(#mask-2)"></path>
	</g>
</svg>
